packages/ui-icons/src/Basic/16/O-platezh_16.svg

<svg xmlns="http://www.w3.org/2000/svg" viewBox="0 0 20 20"><path d="M9 18a8 8 0 0 0 4-1.08 3.5 3.5 0 1 0 3.9-5.63A8 8 0 1 0 9 18Zm6.5-1a2.5 2.5 0 1 1 1.63-4.38l-1.63 1.75-.63-.7-.74.67 1 1.17h.64l1.93-2.07a2.47 2.47 0 0 1 .3 1.06 2.5 2.5 0 0 1-2.5 2.5ZM9 3a6.95 6.95 0 0 1 6.91 8 3.43 3.43 0 0 0-.41 0 3.5 3.5 0 0 0-3.5 3.5 3.45 3.45 0 0 0 .4 1.6A7 7 0 1 1 9 3ZM7 15h1v-2h3v-1H8v-1h2a2.5 2.5 0 1 0 0-5H7v4H6v1h1v1H6v1h1Zm1-8h2a1.5 1.5 0 0 1 0 3H8Z"/></svg>

<svg id="ready" xmlns="http://www.w3.org/2000/svg" viewBox="0 0 20 20"><title>Megaicons_work_16_1.8_cp</title><path d="M9,18a8,8,0,0,0,4-1.08,3.5,3.5,0,1,0,3.9-5.63A8,8,0,1,0,9,18Zm6.5-1a2.5,2.5,0,1,1,1.63-4.38L15.5,14.37l-.63-.7-.74.67,1,1.17h.64l1.93-2.07A2.47,2.47,0,0,1,18,14.5,2.5,2.5,0,0,1,15.5,17ZM9,3a6.95,6.95,0,0,1,6.91,8,3.43,3.43,0,0,0-.41,0A3.5,3.5,0,0,0,12,14.5a3.45,3.45,0,0,0,.4,1.6A7,7,0,1,1,9,3ZM7,15H8V13h3V12H8V11h2a2.5,2.5,0,1,0,0-5H7v4H6v1H7v1H6v1H7ZM8,7h2a1.5,1.5,0,0,1,0,3H8Z"/></svg>
